packages/foundations/assets/icons/functional/images/maps/navigation_straight.svg

<svg xmlns="http://www.w3.org/2000/svg" width="32" height="32" fill="none"><path fill="#1A1C1F" fill-rule="evenodd" d="M15.63 4.107c-.175.081-1.116.992-3.655 3.535-1.881 1.883-3.534 3.56-3.673 3.726-.204.243-.258.351-.281.56-.037.341.131.676.45.898.194.134.282.16.541.159.278-.002.334-.022.568-.211.143-.116 1.417-1.36 2.832-2.767l2.572-2.557.015 9.888c.014 9.627.017 9.894.117 10.095.121.243.449.497.706.545.411.077.968-.232 1.094-.607.053-.155.071-2.343.084-10.057l.017-9.859 2.626 2.606c1.445 1.433 2.727 2.675 2.851 2.759.128.087.321.163.451.177.452.049.974-.392 1.039-.878.06-.452.034-.481-3.634-4.148-1.879-1.878-3.551-3.528-3.716-3.666-.372-.313-.643-.366-1.004-.198"/></svg>

<svg width="32" height="32" viewBox="0 0 32 32" fill="none" xmlns="http://www.w3.org/2000/svg"><path d="M15.630 4.107 C 15.455 4.188,14.514 5.099,11.975 7.642 C 10.094 9.525,8.441 11.202,8.302 11.368 C 8.098 11.611,8.044 11.719,8.021 11.928 C 7.984 12.269,8.152 12.604,8.471 12.826 C 8.665 12.960,8.753 12.986,9.012 12.985 C 9.290 12.983,9.346 12.963,9.580 12.774 C 9.723 12.658,10.997 11.414,12.412 10.007 L 14.984 7.450 14.999 17.338 C 15.013 26.965,15.016 27.232,15.116 27.433 C 15.237 27.676,15.565 27.930,15.822 27.978 C 16.233 28.055,16.790 27.746,16.916 27.371 C 16.969 27.216,16.987 25.028,17.000 17.314 L 17.017 7.455 19.643 10.061 C 21.088 11.494,22.370 12.736,22.494 12.820 C 22.622 12.907,22.815 12.983,22.945 12.997 C 23.397 13.046,23.919 12.605,23.984 12.119 C 24.044 11.667,24.018 11.638,20.350 7.971 C 18.471 6.093,16.799 4.443,16.634 4.305 C 16.262 3.992,15.991 3.939,15.630 4.107 " fill="#1A1C1F" stroke="none" fill-rule="evenodd"></path></svg>
